X: 32745
T: Polonessa Spoof
R: waltz
M: 3/4
K: Dmajor
cd|ef dc cd|ef e3 e/f/|ga fe dc|cd d2 cd|
ef dc cd|ef e3 e/f/|ga fe dc|cd d2:|
|:e/f/g|fg a2 a2|ba ag ge|fg a2 a2|ba ag ge|
(3fed c2 d2|ef e3 e/f/|ga fe dc|cd d2:|

